newicons/mistplay.svg

<?xml version="1.0" encoding="UTF-8" standalone="no"?>
<svg
   viewBox="0 0 48 48"
   version="1.1"
   id="svg1"
   sodipodi:docname="mistplay.svg"
   inkscape:version="1.2.2 (b0a8486541, 2022-12-01)"
   xml:space="preserve"
   xmlns:inkscape="http://www.inkscape.org/namespaces/inkscape"
   xmlns:sodipodi="http://sodipodi.sourceforge.net/DTD/sodipodi-0.dtd"
   xmlns="http://www.w3.org/2000/svg"
   xmlns:svg="http://www.w3.org/2000/svg"><sodipodi:namedview
     id="namedview1"
     pagecolor="#505050"
     bordercolor="#eeeeee"
     borderopacity="1"
     inkscape:showpageshadow="0"
     inkscape:pageopacity="0"
     inkscape:pagecheckerboard="0"
     inkscape:deskcolor="#505050"
     inkscape:zoom="8.90625"
     inkscape:cx="-29.192982"
     inkscape:cy="7.9719298"
     inkscape:window-width="1918"
     inkscape:window-height="1053"
     inkscape:window-x="0"
     inkscape:window-y="0"
     inkscape:window-maximized="1"
     inkscape:current-layer="svg1"
     showgrid="false" /><defs
     id="defs1"><style
       id="style1">.a { fill:none;stroke:#fff;stroke-linecap:round;stroke-linejoin:round; }
</style></defs><path
     style="fill:none;stroke:#ffffff;stroke-width:1;stroke-linecap:round;stroke-linejoin:round;stroke-dashoffset:3.6;stroke-opacity:1"
     d="m 25.564145,36.82929 a 5.5778332,5.5781708 0 0 1 -5.577834,5.57817 5.5778332,5.5781708 0 0 1 -5.577834,-5.57817 5.5778332,5.5781708 0 0 1 5.577834,-5.578171 5.5778332,5.5781708 0 0 1 5.577834,5.578171 z"
     id="path1023" /><path
     style="fill:none;stroke:#ffffff;stroke-width:1;stroke-linecap:round;stroke-linejoin:round;stroke-dashoffset:3.6;stroke-opacity:1"
     d="M 25.523805,18.7074 A 4.6365179,4.6367986 0 0 1 20.887287,23.344199 4.6365179,4.6367986 0 0 1 16.250769,18.7074 4.6365179,4.6367986 0 0 1 20.887287,14.070601 4.6365179,4.6367986 0 0 1 25.523805,18.7074 Z"
     id="path1021" /><path
     style="fill:none;stroke:#ffffff;stroke-width:1;stroke-linecap:round;stroke-linejoin:round;stroke-dashoffset:3.6;stroke-opacity:1"
     d="M 12.028081,10.28859 A 3.2640415,3.2642391 0 0 1 8.76404,13.55283 3.2640415,3.2642391 0 0 1 5.499999,10.28859 3.2640415,3.2642391 0 0 1 8.76404,7.024351 3.2640415,3.2642391 0 0 1 12.028081,10.28859 Z"
     id="path1019" /><path
     style="fill:none;stroke:#ffffff;stroke-width:1;stroke-linecap:round;stroke-linejoin:round;stroke-dashoffset:3.6;stroke-opacity:1"
     d="M 34.270689,8.85678 A 3.2640415,3.2642391 0 0 1 31.006647,12.121019 3.2640415,3.2642391 0 0 1 27.742606,8.85678 3.2640415,3.2642391 0 0 1 31.006647,5.59254 3.2640415,3.2642391 0 0 1 34.270689,8.85678 Z"
     id="path1017" /><path
     style="fill:none;stroke:#ffffff;stroke-width:1;stroke-linecap:round;stroke-linejoin:round;stroke-dashoffset:3.6;stroke-opacity:1"
     d="m 42.500001,17.397624 a 3.2640415,3.2642391 0 0 1 -3.264041,3.264239 3.2640415,3.2642391 0 0 1 -3.264043,-3.264239 3.2640415,3.2642391 0 0 1 3.264043,-3.264238 3.2640415,3.2642391 0 0 1 3.264041,3.264238 z"
     id="path1015" /><path
     style="fill:none;stroke:#ffffff;stroke-width:1;stroke-linecap:round;stroke-linejoin:round;stroke-dashoffset:3.6;stroke-opacity:1"
     d="m 34.881749,26.99415 a 3.591289,3.5915063 0 0 1 -3.59129,3.591505 3.591289,3.5915063 0 0 1 -3.591289,-3.591505 3.591289,3.5915063 0 0 1 3.591289,-3.591506 3.591289,3.5915063 0 0 1 3.59129,3.591506 z"
     id="circle988" /></svg>

<?xml version="1.0" encoding="UTF-8"?><svg id="a" xmlns="http://www.w3.org/2000/svg" viewBox="0 0 48 48"><defs><style>.h{fill:none;stroke:#fff;stroke-linecap:round;stroke-linejoin:round;}</style></defs><path id="b" class="h" d="M25.5641,36.8293c0,3.0807-2.4973,5.5782-5.5778,5.5782h0c-3.0806,0-5.5778-2.4974-5.5778-5.5782h0c0-3.0807,2.4973-5.5782,5.5778-5.5782h0c3.0806,0,5.5778,2.4974,5.5778,5.5782h0Z"/><path id="c" class="h" d="M25.5238,18.7074c0,2.5608-2.0758,4.6368-4.6365,4.6368h0c-2.5607,0-4.6365-2.076-4.6365-4.6368h0c0-2.5608,2.0758-4.6368,4.6365-4.6368h0c2.5607,0,4.6365,2.076,4.6365,4.6368h0Z"/><path id="d" class="h" d="M12.0281,10.2886c0,1.8028-1.4614,3.2642-3.264,3.2642s-3.264-1.4614-3.264-3.2642c0-1.8028,1.4614-3.2642,3.264-3.2642s3.264,1.4614,3.264,3.2642Z"/><path id="e" class="h" d="M34.2707,8.8568c0,1.8028-1.4614,3.2642-3.264,3.2642-1.8027,0-3.264-1.4614-3.264-3.2642h0c0-1.8028,1.4614-3.2642,3.264-3.2642h0c1.8027,0,3.264,1.4615,3.264,3.2642Z"/><path id="f" class="h" d="M42.5,17.3976c0,1.8028-1.4614,3.2642-3.264,3.2642s-3.264-1.4614-3.264-3.2642,1.4614-3.2642,3.264-3.2642,3.264,1.4614,3.264,3.2642Z"/><path id="g" class="h" d="M34.8817,26.9942c0,1.9835-1.6079,3.5915-3.5913,3.5915s-3.5913-1.608-3.5913-3.5915,1.6079-3.5915,3.5913-3.5915,3.5913,1.608,3.5913,3.5915h0Z"/></svg>
